icons/Message-Plus.svg

<svg width="24" height="24" viewBox="0 0 24 24" fill="none" xmlns="http://www.w3.org/2000/svg">
<g id="Message-Plus">
<path id="Vector" d="M18.8 10.5V14.21C18.8 15.0056 18.4839 15.7687 17.9213 16.3313C17.3587 16.8939 16.5956 17.21 15.8 17.21H10.59C10.3262 17.2137 10.0746 17.3216 9.88995 17.51L7.04995 20.35C6.98007 20.4185 6.89161 20.465 6.79554 20.4837C6.69948 20.5024 6.60003 20.4926 6.50953 20.4553C6.41903 20.418 6.34145 20.355 6.28642 20.2741C6.23139 20.1931 6.20133 20.0978 6.19995 20V18.07C6.20467 17.836 6.1272 17.6078 5.98102 17.4251C5.83485 17.2424 5.62923 17.1167 5.39995 17.07C4.76771 16.895 4.21024 16.5177 3.8129 15.9957C3.41556 15.4738 3.20025 14.836 3.19995 14.18V8.34998C3.19995 7.55433 3.51602 6.79126 4.07863 6.22866C4.64124 5.66605 5.4043 5.34998 6.19995 5.34998H13.8" stroke="#00153F" stroke-width="1.5" stroke-miterlimit="10" stroke-linecap="round"/>
<path id="Vector_2" d="M8 11.2V11.201" stroke="#00153F" stroke-width="2" stroke-linecap="round" stroke-linejoin="round"/>
<path id="Vector_3" d="M11 11.2V11.201" stroke="#00153F" stroke-width="2" stroke-linecap="round" stroke-linejoin="round"/>
<path id="Vector_4" d="M14 11.2V11.201" stroke="#00153F" stroke-width="2" stroke-linecap="round" stroke-linejoin="round"/>
<path id="Vector_5" d="M18.8 3.5V7.5" stroke="#00153F" stroke-width="1.5" stroke-linecap="round" stroke-linejoin="round"/>
<path id="Vector_6" d="M20.8 5.5H16.8" stroke="#00153F" stroke-width="1.5" stroke-linecap="round" stroke-linejoin="round"/>
</g>
</svg>

<svg xmlns="http://www.w3.org/2000/svg" fill="none" viewBox="0 0 24 24"><g stroke="currentColor" stroke-linecap="round"><path stroke-miterlimit="10" stroke-width="1.5" d="M18.8 10.5v3.71a3 3 0 0 1-3 3h-5.21a1 1 0 0 0-.7.3l-2.84 2.84A.5.5 0 0 1 6.2 20v-1.93a1 1 0 0 0-.8-1 3 3 0 0 1-2.2-2.89V8.35a3 3 0 0 1 3-3h7.6"/><path stroke-linejoin="round" stroke-width="2" d="M8 11.2v.001m3-.001v.001m3-.001v.001"/><path stroke-linejoin="round" stroke-width="1.5" d="M18.8 3.5v4m2-2h-4"/></g></svg>
